svg/black/gzr.svg

<svg width="32" height="32" viewBox="0 0 32 32" version="1.1" xmlns="http://www.w3.org/2000/svg" xmlns:xlink="http://www.w3.org/1999/xlink"><title>svg/black/gzr</title><desc>Created with Sketch.</desc><g id="black/gzr" stroke="none" stroke-width="1" fill="none" fill-rule="evenodd"><path d="M9.25372886,8.3065798 C9.22985894,8.30799203 9.20599534,8.30982039 9.18214876,8.31206612 C9.10280992,8.41123967 9.00363636,8.35173554 8.90446281,8.37157025 C8.54743802,8.43107438 8.26975207,8.68892562 8.28958678,8.98644628 C8.30942149,9.32363636 8.58710744,9.40297521 8.86479339,9.46247934 C9.53917355,9.62115702 10.2135537,9.56165289 10.8879339,9.5814876 C11.701157,9.5814876 12.1573554,9.97818182 12.2763636,10.791405 C12.3557025,11.3864463 14.1408264,27.0161983 14.1606612,27.3533884 C14.1643565,27.4946967 14.2616271,27.616285 14.3986777,27.6509091 C15.0731186,27.8563592 15.7766129,27.9501585 16.4813223,27.928595 C17.272086,27.94918 18.0613544,27.8488493 18.8218182,27.6310744 C18.9408264,27.591405 19.04,27.5517355 19.04,27.3930579 C19.0598347,26.9765289 20.1904132,12.0409917 20.1904132,11.8029752 C20.1785277,11.1083606 20.4022516,10.4301975 20.825124,9.87900826 C21.162314,9.48231405 21.5391736,9.12528926 21.8763636,8.72859504 C21.8788018,8.71494143 21.8807484,8.70162348 21.8822162,8.68863442 C22.2769596,8.66908995 22.6717029,8.66889582 23.0664463,8.62942149 C23.2449587,8.60958678 23.5226446,8.60958678 23.5028099,8.27239669 C23.4631405,8.07404959 23.1457851,7.51867769 21.6978512,7.85586777 C21.5590083,7.89553719 20.7656198,8.13355372 20.4879339,7.99471074 C20.9111424,7.72128457 21.3480784,7.46971531 21.7970248,7.24099174 C21.9953719,7.08231405 22.1540496,6.86413223 22.0350413,6.6261157 C21.9160331,6.38809917 21.6780165,6.40793388 21.4598347,6.48727273 C21.0489594,6.61479054 20.6747944,6.83928954 20.3689256,7.14181818 C20.1678337,7.34618957 19.9487696,7.53206217 19.7143802,7.69719008 C19.1391736,7.97487603 19.1391736,7.97487603 19.0003306,7.93520661 C18.8218182,7.85586777 18.6234711,7.71702479 18.762314,7.51867769 C18.8431082,7.38995817 18.9033359,7.24942696 18.9408264,7.10214876 C19.0003306,6.84429752 18.9209917,6.76495868 18.7424793,6.76495868 C18.3854545,6.78479339 18.2664463,7.30049587 18.2069421,7.37983471 C18.1689648,7.4575247 18.1223926,7.53070953 18.0680992,7.59801653 C17.9740381,7.69052987 17.8354647,7.72132397 17.7110744,7.67735537 C17.5920661,7.65752066 17.4928926,7.59801653 17.5920661,7.43933884 C17.7705785,7.16165289 18.3259504,6.72528926 18.4846281,6.15008264 C18.4846281,6.15008264 18.762314,5.39636364 17.9887603,5.37652893 C17.5722314,5.35669421 17.2350413,5.65421488 17.1160331,6.11041322 C16.9970248,6.58644628 17.254876,7.24099174 17.1160331,7.55834711 C17.0659388,7.69176797 16.9993027,7.81837657 16.917686,7.93520661 C16.6411582,8.18314806 16.2223128,8.18314806 15.9457851,7.93520661 C15.7912903,7.75475239 15.7257847,7.51456525 15.7672727,7.28066116 C15.83541,7.01947709 15.8883909,6.75457235 15.9259504,6.48727273 C15.9457851,6.28892562 15.5887603,5.93190083 15.2912397,6.16991736 C15.1523967,6.26909091 15.2119008,6.4277686 15.271405,6.56661157 C15.3705785,6.86413223 15.5490909,7.71702479 14.5771901,7.30049587 C14.2003306,7.10214876 14.517686,6.13024793 14.378843,5.77322314 C14.3523338,5.66157532 14.2717702,5.57056843 14.1641618,5.53071349 C14.0565535,5.49085855 13.9361455,5.50743148 13.8433058,5.57487603 C13.739102,5.61738646 13.659037,5.70381 13.6245983,5.81095263 C13.5901596,5.91809526 13.6048743,6.03498372 13.6647934,6.13024793 C13.7441322,6.28892562 14.2201653,7.20132231 13.8433058,7.36 C13.7044628,7.41950413 13.4069421,7.30049587 13.208595,7.1814876 C12.4945455,6.86413223 12.3755372,5.77322314 12.1573554,5.63438017 C11.9489148,5.48058837 11.6624601,5.48877279 11.4631405,5.65421488 C11.2608852,5.76804283 11.175685,6.01512332 11.2647934,6.22942149 C11.3639669,6.40793388 11.7408264,6.50710744 11.8201653,7.12198347 L11.8429167,7.139047 C11.8347286,7.13893811 11.8271232,7.13983022 11.8201653,7.14181818 C11.701157,7.14181818 11.6416529,7.06247934 11.562314,7.00297521 C11.2017173,6.75552746 10.7441597,6.69648777 10.332562,6.84429752 C10.1589052,6.88520774 10.0263002,7.02561305 9.9953719,7.20132231 C9.99773043,7.38870572 10.1164029,7.5548472 10.2928926,7.61785124 C10.4898028,7.69175849 10.6819113,7.7778761 10.8680992,7.87570248 C10.9672727,7.9153719 11.1259504,7.93520661 11.1061157,8.11371901 C11.1060403,8.11582383 11.1059817,8.11792851 11.1059398,8.12003283 C11.0903584,8.10022086 11.0700439,8.08435461 11.0466116,8.07404959 C10.557108,8.13561072 10.0611204,8.03082461 9.63834711,7.77652893 C9.44216621,7.63796196 9.17998255,7.63796196 8.98380165,7.77652893 C8.72595041,7.99471074 9.10280992,8.25256198 9.12264463,8.25256198 C9.16516934,8.27913993 9.20911859,8.29574604 9.25372886,8.3065798 Z M13.9194991,7.41551694 C13.9139246,7.41677445 13.9083611,7.41810349 13.9028099,7.41950413 C13.8832166,7.42330643 13.8640619,7.42850307 13.8454694,7.43500574 C13.857164,7.42914656 13.8696334,7.42395141 13.8829752,7.41950413 C13.8951358,7.41790586 13.9073133,7.41657719 13.9194991,7.41551694 Z M16,32 C7.163444,32 0,24.836556 0,16 C0,7.163444 7.163444,0 16,0 C24.836556,0 32,7.163444 32,16 C32,24.836556 24.836556,32 16,32 Z M23.8796694,9.44264463 C23.1259504,9.16495868 21.4598347,9.5814876 21.3804959,9.70049587 C21.6978512,9.76 21.7970248,9.79966942 22.2730579,9.87900826 C22.7832884,9.97153949 23.2733492,10.1527949 23.7209917,10.4145455 C24.1970248,10.6922314 24.3953719,10.3153719 24.3953719,10.3153719 C24.4747107,10.1368595 24.2565289,9.5814876 23.8796694,9.44264463 Z M10.332562,6.15008264 C10.2108104,5.95769267 10.0783713,5.77227792 9.93586777,5.59471074 C9.55900826,5.19801653 8.82512397,4.99966942 8.42842975,5.19801653 C8.21024793,5.29719008 8.11107438,5.43603306 8.28958678,5.67404959 C8.50688609,5.88850642 8.78305488,6.03349504 9.08297521,6.09057851 C9.2614876,6.13024793 10.054876,6.30876033 10.2532231,6.34842975 C10.4535537,6.34842975 10.332562,6.15008264 10.332562,6.15008264 Z M24.2565289,7.41950413 C24.2961983,7.30049587 24.2565289,6.90380165 23.5424793,7.00297521 C22.947438,7.10214876 22.5309091,7.26082645 22.5507438,7.34016529 C22.5705785,7.41950413 23.225124,7.5385124 23.3639669,7.55834711 C23.9193388,7.65752066 24.2366942,7.49884298 24.2565289,7.41950413 Z M17.0366942,4.10710744 C16.8931759,3.97429895 16.6742871,3.96588015 16.5209917,4.08727273 C15.9259504,4.46413223 16.362314,5.75338843 16.4218182,5.75338843 C16.4813223,5.75338843 16.5408264,5.29719008 17.1358678,4.62280992 C17.1928433,4.54181706 17.214461,4.44114868 17.1957603,4.34390496 C17.1770596,4.24666124 17.119646,4.16119118 17.0366942,4.10710744 Z" id="Combined-Shape" fill="#000" fill-rule="nonzero"/></g></svg>

<svg width="32" height="32" viewBox="0 0 32 32" xmlns="http://www.w3.org/2000/svg"><path d="M9.254 8.307a2.063 2.063 0 0 0-.072.005c-.08.1-.178.04-.278.06-.357.06-.634.317-.614.614.02.338.297.417.575.476.674.16 1.349.1 2.023.12.813 0 1.27.396 1.388 1.21.08.594 1.865 16.224 1.885 16.561a.315.315 0 0 0 .238.298c.674.205 1.378.3 2.082.278.791.02 1.58-.08 2.34-.298.12-.04.219-.08.219-.238.02-.416 1.15-15.352 1.15-15.59a3.074 3.074 0 0 1 .635-1.924c.337-.397.714-.754 1.051-1.15a.63.63 0 0 0 .006-.04c.395-.02.79-.02 1.184-.06.179-.02.457-.02.437-.357-.04-.198-.357-.753-1.805-.416-.139.04-.932.278-1.21.139.423-.274.86-.525 1.309-.754.198-.159.357-.377.238-.615s-.357-.218-.575-.139a2.683 2.683 0 0 0-1.091.655c-.201.204-.42.39-.655.555-.575.278-.575.278-.714.238-.178-.08-.377-.218-.238-.416.081-.129.141-.27.179-.417.06-.258-.02-.337-.199-.337-.357.02-.476.535-.535.615-.038.078-.085.15-.139.218a.345.345 0 0 1-.357.08c-.119-.02-.218-.08-.119-.239.179-.277.734-.714.893-1.289 0 0 .277-.754-.496-.773-.417-.02-.754.277-.873.733-.119.476.139 1.131 0 1.448-.05.134-.117.26-.198.377a.728.728 0 0 1-.972 0 .793.793 0 0 1-.179-.654 7.15 7.15 0 0 0 .159-.794c.02-.198-.337-.555-.635-.317-.139.1-.08.258-.02.397.1.297.278 1.15-.694.733-.377-.198-.06-1.17-.198-1.527a.343.343 0 0 0-.536-.198.38.38 0 0 0-.178.555c.08.159.555 1.071.178 1.23-.139.06-.436-.06-.634-.179-.714-.317-.833-1.408-1.052-1.547a.563.563 0 0 0-.694.02.458.458 0 0 0-.198.575c.099.179.476.278.555.893l.023.017c-.008 0-.016 0-.023.003-.119 0-.178-.08-.258-.139a1.36 1.36 0 0 0-1.23-.159.446.446 0 0 0-.337.357.448.448 0 0 0 .298.417c.197.074.389.16.575.258.1.04.258.06.238.238v.006a.155.155 0 0 0-.06-.046 2.2 2.2 0 0 1-1.408-.297.567.567 0 0 0-.654 0c-.258.218.119.476.139.476a.44.44 0 0 0 .13.054zm4.665-.891a.679.679 0 0 0-.074.019.284.284 0 0 1 .038-.015.837.837 0 0 1 .036-.004zM16 32C7.163 32 0 24.837 0 16S7.163 0 16 0s16 7.163 16 16-7.163 16-16 16zm7.88-22.557c-.754-.278-2.42.138-2.5.257.318.06.417.1.893.179.51.093 1 .274 1.448.536.476.277.674-.1.674-.1.08-.178-.138-.734-.515-.872zM10.333 6.15a6.093 6.093 0 0 0-.397-.555c-.377-.397-1.11-.595-1.508-.397-.218.1-.317.238-.138.476.217.215.493.36.793.417.178.04.972.218 1.17.257.2 0 .08-.198.08-.198zm13.924 1.27c.04-.12 0-.516-.715-.417-.595.1-1.011.258-.991.337.02.08.674.199.813.218.555.1.873-.06.893-.138zm-7.22-3.313a.397.397 0 0 0-.516-.02c-.595.377-.159 1.666-.1 1.666.06 0 .12-.456.715-1.13a.365.365 0 0 0-.1-.516z"/></svg>
